X:104
M:6/8
L:1/8
K:A
|:Ae=d cBA|=GFG FED|dfe dcB|AFA GFE|gba gfe|dBd cBA|fdf ecA|EFG A3:|

